public/icons/chains/CITREA.svg

<?xml version="1.0" encoding="UTF-8" standalone="no"?>
<svg
   width="25"
   height="25"
   viewBox="0 0 25 25"
   fill="none"
   version="1.1"
   id="svg16"
   sodipodi:docname="CITREA.svg"
   inkscape:version="1.1.2 (0a00cf5339, 2022-02-04)"
   xmlns:inkscape="http://www.inkscape.org/namespaces/inkscape"
   xmlns:sodipodi="http://sodipodi.sourceforge.net/DTD/sodipodi-0.dtd"
   xmlns="http://www.w3.org/2000/svg"
   xmlns:svg="http://www.w3.org/2000/svg">
  <defs
     id="defs20" />
  <sodipodi:namedview
     id="namedview18"
     pagecolor="#ffffff"
     bordercolor="#666666"
     borderopacity="1.0"
     inkscape:pageshadow="2"
     inkscape:pageopacity="0.0"
     inkscape:pagecheckerboard="0"
     showgrid="false"
     inkscape:snap-global="true"
     inkscape:zoom="7.1396911"
     inkscape:cx="18.278102"
     inkscape:cy="36.206048"
     inkscape:window-width="1850"
     inkscape:window-height="1016"
     inkscape:window-x="0"
     inkscape:window-y="0"
     inkscape:window-maximized="1"
     inkscape:current-layer="svg16" />
  <rect
     style="fill:#f0781b;fill-opacity:1;stroke-width:0.848097"
     id="rect1126"
     width="25"
     height="25"
     x="0"
     y="0" />
  <g
     id="g28"
     transform="matrix(0.31730708,0,0,0.31730366,2.3461575,2.3462671)">
    <path
       d="m 31.8987,26.0975 c -1.2235,0 -2.4471,-0.6107 -3.0589,-1.8319 L 19.8672,9 h 24.063 l -8.9726,15.2656 c -0.6118,1.2212 -1.8354,1.8319 -3.0589,1.8319 z"
       fill="#ffffff"
       id="path4" />
    <path
       d="m 40.0548,30.9829 c -1.2235,0 -2.4471,-0.6106 -3.0589,-1.8319 -0.6117,-1.2212 -0.6117,-2.4425 0,-3.6637 l 8.9727,-15.2656 12.0315,20.7612 z"
       fill="#ffffff"
       id="path6" />
    <path
       d="m 19.8672,55.0001 8.9726,-15.2656 c 0.6118,-1.2213 1.8354,-1.8319 3.0589,-1.8319 1.2235,0 2.4471,0.6106 3.0589,1.8319 l 8.9726,15.2656 z"
       fill="#ffffff"
       id="path8" />
    <path
       d="m 36.9959,38.5132 c -0.6117,-1.2213 -0.6117,-2.4425 0,-3.6638 0.6118,-1.2212 1.8354,-1.8318 3.0589,-1.8318 H 57.7962 L 45.7647,53.7788 Z"
       fill="#ffffff"
       id="path10" />
    <path
       d="m 6,30.9829 12.0315,-20.7612 8.9727,15.2656 c 0.6117,1.2212 0.6117,2.4425 0,3.6637 -0.6118,1.2213 -1.8353,1.8319 -3.0589,1.8319 z"
       fill="#ffffff"
       id="path12" />
    <path
       d="m 6,33.0176 h 17.7414 c 1.2235,0 2.4471,0.6106 3.0588,1.8318 0.6118,1.2213 0.6118,2.4425 0,3.6638 l -8.9726,15.2656 z"
       fill="#ffffff"
       id="path14" />
  </g>
</svg>

<svg width="64" height="64" viewBox="0 0 64 64" fill="none" xmlns="http://www.w3.org/2000/svg">
<path d="M0 32C0 49.6731 14.3269 64 32 64C49.6731 64 64 49.6731 64 32C64 14.3269 49.6731 0 32 0C14.3269 0 0 14.3269 0 32Z" fill="#F0781B"/>
<path d="M31.8987 26.0975C30.6752 26.0975 29.4516 25.4868 28.8398 24.2656L19.8672 9H43.9302L34.9576 24.2656C34.3458 25.4868 33.1222 26.0975 31.8987 26.0975Z" fill="white"/>
<path d="M40.0548 30.9829C38.8313 30.9829 37.6077 30.3723 36.9959 29.151C36.3842 27.9298 36.3842 26.7085 36.9959 25.4873L45.9686 10.2217L58.0001 30.9829H40.0548Z" fill="white"/>
<path d="M19.8672 55.0001L28.8398 39.7345C29.4516 38.5132 30.6752 37.9026 31.8987 37.9026C33.1222 37.9026 34.3458 38.5132 34.9576 39.7345L43.9302 55.0001H19.8672Z" fill="white"/>
<path d="M36.9959 38.5132C36.3842 37.2919 36.3842 36.0707 36.9959 34.8494C37.6077 33.6282 38.8313 33.0176 40.0548 33.0176H57.7962L45.7647 53.7788L36.9959 38.5132Z" fill="white"/>
<path d="M6 30.9829L18.0315 10.2217L27.0042 25.4873C27.6159 26.7085 27.6159 27.9298 27.0042 29.151C26.3924 30.3723 25.1689 30.9829 23.9453 30.9829H6Z" fill="white"/>
<path d="M6 33.0176H23.7414C24.9649 33.0176 26.1885 33.6282 26.8002 34.8494C27.412 36.0707 27.412 37.2919 26.8002 38.5132L17.8276 53.7788L6 33.0176Z" fill="white"/>
</svg>
